library/css/icons/svgs/fi-folder-lock.svg

<svg xmlns="http://www.w3.org/2000/svg" width="100" height="100" viewBox="0 0 100 100"><path d="M69.499 52.139c-1.84 0-3.336 1.495-3.336 3.332v2.921h6.672v-2.941h-.001l.001-.011c-.018-1.823-1.507-3.301-3.336-3.301zM86.016 24.091h-36.703c-1.979-2.37-4.013-4.865-4.54-5.624-.511-1.071-1.608-1.808-2.874-1.808h-14.532c-.963 0-1.875.435-2.478 1.185l-5.021 6.247h-5.885c-3.021 0-5.484 2.46-5.484 5.484v48.284c0 3.024 2.463 5.482 5.484 5.482h72.032c3.021 0 5.484-2.458 5.484-5.482v-48.284c.001-3.025-2.463-5.484-5.483-5.484zm-4.473 48.397c0 .497-.401.897-.898.897h-21.975c-.496 0-.897-.4-.897-.897v-13.199c0-.496.401-.897.897-.897h2.713v-2.921c0-4.473 3.64-8.114 8.115-8.114 4.476 0 8.116 3.641 8.116 8.114l-.001.037v2.884h3.0309999999999997c.496 0 .898.401.898.897v13.199z"/></svg>

<?xml version="1.0" encoding="utf-8"?>
<!-- Generator: Adobe Illustrator 17.0.0, SVG Export Plug-In . SVG Version: 6.00 Build 0)  -->
<!DOCTYPE svg PUBLIC "-//W3C//DTD SVG 1.1//EN" "http://www.w3.org/Graphics/SVG/1.1/DTD/svg11.dtd">
<svg version="1.1" id="Layer_1" xmlns="http://www.w3.org/2000/svg" xmlns:xlink="http://www.w3.org/1999/xlink" x="0px" y="0px"
	 width="100px" height="100px" viewBox="0 0 100 100" enable-background="new 0 0 100 100" xml:space="preserve">
<g>
	<path d="M69.499,52.139c-1.84,0-3.336,1.495-3.336,3.332v2.921h6.672v-2.921c0-0.006,0-0.013,0-0.02h-0.001
		c0-0.004,0.001-0.007,0.001-0.011C72.817,53.617,71.328,52.139,69.499,52.139z"/>
	<path d="M86.016,24.091H49.313c-1.979-2.37-4.013-4.865-4.54-5.624c-0.511-1.071-1.608-1.808-2.874-1.808H27.367
		c-0.963,0-1.875,0.435-2.478,1.185l-5.021,6.247h-5.885c-3.021,0-5.484,2.46-5.484,5.484v48.284c0,3.024,2.463,5.482,5.484,5.482
		h72.032c3.021,0,5.484-2.458,5.484-5.482V29.575C91.5,26.55,89.036,24.091,86.016,24.091z M81.543,72.488
		c0,0.497-0.401,0.897-0.898,0.897H58.67c-0.496,0-0.897-0.4-0.897-0.897V59.289c0-0.496,0.401-0.897,0.897-0.897h1.271h1.442
		v-2.921c0-4.473,3.64-8.114,8.115-8.114c4.476,0,8.116,3.641,8.116,8.114c0,0.011,0,0.024-0.001,0.037v2.884h1.76h1.271
		c0.496,0,0.898,0.401,0.898,0.897V72.488z"/>
</g>
</svg>
